X: 15862
T: Grace Morrison Of Borve
R: jig
M: 6/8
K: Dmajor
ABc|:d2g fge|fdd cBA|B2d AGF|GEEE2A|
d2g fge|fdd cBA|B2d cde|1 fddd2A:|2 fdd dfg||
|:a2g fed|Bed cBA|B2d AdB|cd^d efg|
a2g fed|Bed cBA|B2d cde|1 fdd dfg:|2 fddd2A||

